X: 5
T: The Mossy Banks
R: reel
M: 4/4
L: 1/8
K: Gmaj
g2dB G3A|BGG2 AGEG|DEGA Bddg|edB/c/d e3f|
g2dB G3A|BGG2 AGEG|DEGAB2ge|[1dBBA EGG2:|[2dBBA EGGF||
G3B A2GE|DEGB AGEG|B3d e2ge|dBGA BAAF|
G3B A2GE|D2BG AGEG|B3d edge|[1dBAD BGGF:|[2dBAD BGB/c/d||
g2dg egde|g2bg agef|fgdg egdB|ADGA BGB/c/d|
g2dg egde|gab2 agef|[1g3a gfed|e/f/gaf g2gf:|[2gbb2gfed|fggf g3f|]


Tune 1846	Setting 15279

